images/milestone_2.svg

<?xml version="1.0" encoding="utf-8"?>
<!-- Generator: Adobe Illustrator 16.0.0, SVG Export Plug-In . SVG Version: 6.00 Build 0)  -->
<!DOCTYPE svg PUBLIC "-//W3C//DTD SVG 1.1//EN" "http://www.w3.org/Graphics/SVG/1.1/DTD/svg11.dtd">
<svg version="1.1" id="Layer_1" xmlns="http://www.w3.org/2000/svg" xmlns:xlink="http://www.w3.org/1999/xlink" x="0px" y="0px"
	 width="67px" height="49px" viewBox="0 0 67 49" enable-background="new 0 0 67 49" xml:space="preserve">
<g>
	<g>
		<path fill="#F47752" d="M66.414,17.419L43.921,0.457c-0.599-0.452-1.424-0.452-2.023,0L38.2,3.245l-3.697-2.789
			c-0.6-0.452-1.425-0.452-2.024,0l-3.605,2.719l-3.605-2.719c-0.599-0.452-1.424-0.452-2.023,0L0.751,17.419
			c-0.421,0.317-0.668,0.814-0.668,1.341v28.558c0,0.928,0.752,1.682,1.68,1.682h9.234h9.418H46.75h9.234h9.418
			c0.929,0,1.681-0.754,1.681-1.682V18.76C67.083,18.233,66.836,17.736,66.414,17.419L66.414,17.419z M63.723,45.639h-6.058V18.76
			c0-0.527-0.248-1.024-0.669-1.341L40.991,5.35l1.918-1.447l20.813,15.695V45.639z M48.431,45.639V18.76
			c0-0.527-0.248-1.024-0.669-1.341L31.665,5.28l1.826-1.377l20.814,15.695v26.041H48.431L48.431,45.639z M27.008,45.639h-4.912
			h-0.591V33.455h5.503V45.639L27.008,45.639z M30.369,45.639V31.773c0-0.928-0.752-1.68-1.68-1.68h-8.864
			c-0.928,0-1.68,0.752-1.68,1.68v13.865h-5.467H3.443V19.598L24.256,3.902l20.813,15.695v26.041H30.369z"/>
	</g>
</g>
</svg>

<svg xmlns="http://www.w3.org/2000/svg" width="67" height="48.883" viewBox="0 0 67 48.883">
  <g id="milestone_2" transform="translate(-0.083 -0.117)">
    <g id="Group_2" data-name="Group 2">
      <path id="Path_8" data-name="Path 8" d="M66.414,17.419,43.921.457a1.679,1.679,0,0,0-2.023,0L38.2,3.245,34.5.456a1.68,1.68,0,0,0-2.024,0l-3.6,2.719L25.269.456a1.679,1.679,0,0,0-2.023,0L.751,17.419A1.678,1.678,0,0,0,.083,18.76V47.318A1.681,1.681,0,0,0,1.763,49H65.4a1.682,1.682,0,0,0,1.681-1.682V18.76a1.677,1.677,0,0,0-.669-1.341Zm-2.691,28.22H57.665V18.76A1.679,1.679,0,0,0,57,17.419L40.991,5.35,42.909,3.9,63.722,19.6V45.639Zm-15.292,0V18.76a1.679,1.679,0,0,0-.669-1.341L31.665,5.28,33.491,3.9,54.305,19.6V45.639Zm-21.423,0H21.5V33.455h5.5V45.639Zm3.361,0V31.773a1.68,1.68,0,0,0-1.68-1.68H19.825a1.68,1.68,0,0,0-1.68,1.68V45.638H3.443V19.6L24.256,3.9,45.069,19.6V45.638h-14.7Z" fill="#d3ae29"/>
    </g>
  </g>
</svg>
